X:1
T:Title
%%score { ( 1 3 ) | ( 2 4 ) }
L:1/8
Q:1/4=100
M:4/4
K:Eb
V:1 treble nm="Grand Piano"
V:3 treble 
V:2 bass 
V:4 bass 
V:1
 E3 F D2 E2 | A2 G2 F2 E2 | F3 G =EFAc | c4 [B,B]4 | [GB]3 [GB] [G=A][GB][Ge][DGd] | %5
w: Grace~Wilbur~Conant * * *|||||
 [E=Ad]2 [EAc]2 [CFA]2 [=A,F]2 | .[B,FB]2 .[FBc]2 c2- [E=Ac]2 | B4 B2 B2 | B3 B B2 B2 | %9
w: ||||
 _d2 B2 _G2 A2 | B3 [B,DB] [B,EB]3 [EB] | [_GBc]2 [GBc]2 [FBd]4 | [EBe]3 [EB] [EBd]2 [EAc]2 | %13
w: ||||
 [D=Ad]3 [DA] [DAc]2 [DGB]2 | [CGc]3 [=EG] [_DGB]2 .[CFA]2 | [B,DG]2 [A,DF]2 [G,E]4 |] %16
w: |||
V:2
 [E,G,B,]3 [E,A,B,] [E,F,B,]2 [E,G,B,]2 | [E,CE]2 [E,B,E]2 [E,A,D]2 [E,G,]2 | %2
 [A,CE]3 [A,CE] [A,CE][A,CE][F,CF][F,A,F] | A,4 z4 | [E,B,]3 [E,B,] [E,B,][E,B,][C,C]C, | %5
 F,2 F,2 E,2 E,2 | z[K:treble] B z d[K:bass] F,2 z[K:treble] B | B,4 B,2 B,2 | %8
 B,3[K:bass] B, B,2 B,2 | _D2 B,2 _G,2 A,2 | B,3 A, _G,3 G, | E,2 E,2 B,,2 A,2 | G,3 G, A,2 A,G, | %13
 _G,3 G, =G,2 G,F, | =E,2 z C F,2 z C | B,,2 B,,2 E,4 |] %16
V:3
 x8 | x8 | x8 | F8 | x8 | x8 | z4 [CB]2 z2 | [DF]6 z2 | x8 | x8 | x8 | x8 | x8 | x8 | x8 | x8 |] %16
V:4
 x8 | x8 | x8 | D,8 | x8 | x8 | D,2[K:treble] D,2[K:bass] z2 F,2[K:treble] | x8 | x3[K:bass] x5 | %9
 x8 | x8 | x8 | x8 | x8 | z2 C,2 z2 F,2 | x8 |] %16

